icons/hand-sanitizer.svg

<svg width="24" height="24" viewBox="0 0 24 24" fill="none" xmlns="http://www.w3.org/2000/svg">
<path d="M5 20C5 20.5523 5.44772 21 6 21H18C18.5523 21 19 20.5523 19 20V12C19 10.3431 17.6569 9 16 9H8C6.34315 9 5 10.3431 5 12V20Z" stroke="white" stroke-width="2" stroke-linecap="round" stroke-linejoin="round"/>
<path d="M12 13V17" stroke="white" stroke-width="2" stroke-linecap="round" stroke-linejoin="round"/>
<path d="M10 15H14" stroke="white" stroke-width="2" stroke-linecap="round" stroke-linejoin="round"/>
<path d="M9 9V7H15V9" stroke="white" stroke-width="2" stroke-linecap="round" stroke-linejoin="round"/>
<path d="M12 7V3" stroke="white" stroke-width="2" stroke-linecap="round" stroke-linejoin="round"/>
<path d="M4.53513 5C5.22674 3.8044 6.51943 3 8 3H16" stroke="white" stroke-width="2" stroke-linecap="round" stroke-linejoin="round"/>
</svg>

<svg
  width="24"
  height="24"
  viewBox="0 0 24 24"
  xmlns="http://www.w3.org/2000/svg"
  fill="none"
  stroke="currentColor"
  stroke-width="2"
  stroke-linecap="round"
  stroke-linejoin="round"
>
  <path d="M5 20a1 1 0 0 0 1 1h12a1 1 0 0 0 1-1v-8a3 3 0 0 0-3-3H8a3 3 0 0 0-3 3v8z" />
  <path d="M12 13v4" />
  <path d="M10 15h4" />
  <path d="M9 9V7h6v2" />
  <path d="M12 7V3" />
  <path d="M4.535 5A3.998 3.998 0 0 1 8 3h8" />
</svg>
